X: 1436
T: Ne Dert Kalır Ne Hüzün
C: Sadettin Kaynak
O: Turkey
F: http://compmusic.upf.edu/node/140
N: nihavent--sarki--sofyan--ne_dert--sadettin_kaynak
N: makam= nihavent
N: form= sarki
N: usul= sofyan = 4/4
M: 4/4
L: 1/16
K: C _B _e  
Q: 1/4=60
%%MIDI tuningsystem comma53
G2GA B4 A3/2B/d3/2c/ B3/2A/G2  | d2e^f g4 a3/2c'/ba gfg2  | 
w:  ARANAĞME  |   | 
d3/2e/f6 g3/2f/e3/2d/ c4  | c3/2d/e6 f3/2e/d3/2c/ B4  | \
w:   |   | 
G3/2A/B2 A3/2B/c2 B3/2c/d6  | 
w:   | 
f3/2e/d3/2c/ B3/2A/G^F G4 z4  | D2G4A2 B4 A2BG  | \
w:   |  Ne  dert  ka lır  ne  hü  | 
G4 zDE^F GABc BAG2  | 
w:  zün   SAZ  | 
z2B4BA B8  | A2B4c2 d8  | z4 c2d2 e4 d4  | \
w:  Bir  su *  dur   |  a kar  za man    |  Se ni  ilk  gör  | 
c2d2 B2A2 A8  | z4 B2BA G6z2  | 
w:  dü ğüm  *  *  gün    |  De dim_ *  ah   | 
g16  | gffe eddc f8  | feed dccB e4 z4  | \
w:  ah   |   |  ah   | 
eddc cBBA GABc dcd2  | 
w:  ah   | 
d4 A2c2 B3A G4  | G2GA B4 A3/2B/d3/2c/ B3/2A/G2  | \
w:  *  be nim_ ol *  san    |  ARANAĞME  | 
d2e^f g4 a3/2c'/ba gfg2  | 
w:   | 
d3/2e/f6 g3/2f/e3/2d/ c4  | c3/2d/e6 f3/2e/d3/2c/ B4  | \
w:   |   | 
G3/2A/B2 A3/2B/c2 B3/2c/d6  | 
w:   | 
f3/2e/d3/2c/ B3/2A/G^F G4 z4  | z2g4a2 b4 a4  | \
w:   |  Ay  de ğil  yıl  | 
g4 ^f4 g3/2f/ga b3/2a/g2  | 
w:  lar  geç ti   SAZ  | 
a2b6 a4 g4  | b4 c'4 d'8  | d'c'd'c' c'4 c'bc'b b4  | \
w:  Ka vuş mak  şim  |  di  bir  an    |  SAZ  | 
baba a4 g^fag g4  | 
w:   | 
z2g4a2 b4 a4  | g4 ^f4 g3/2f/ga b3/2a/g2  | \
w:  Ay  de ğil  yıl  |  lar  geç ti   SAZ  | 
a2b6 a4 g4  | ^f3e feed d8  | 
w:  Ka vuş mak  şim  |  di  *  bir  *  *  *  an    | 
baba a4 agag g4  | ^fegf f4 d^ced d4  | \
w:  SAZ  |   | 
z2f6 f4 f2ed  | 
w:  Kış  geç ti   | 
d2g2 f2g2 e3d c4  | z4 B2BA G6z2  | g16  | \
w:  ba har  *  *  geç *  ti    |  De dim_ *  ah   |  ah   | 
gffe eddc f4 z4  | 
w:   | 
feed dccB e4 z4  | eddc cBBA GABc dcd2  | 
w:  ah   |  ah   | 
d4 A2c2 B3A G4  | G2GA B4 A3/2B/d3/2c/ B3/2A/G2  | \
w:  *  be nim_ ol *  san    |  ARANAĞME  | 
d2e^f g4 a3/2c'/ba gfg2  | 
w:   | 
d3/2e/f6 g3/2f/e3/2d/ c4  | c3/2d/e6 f3/2e/d3/2c/ B4  | \
w:   |   | 
G3/2A/B2 A3/2B/c2 B3/2c/d6  | 
w:   | 
f3/2e/d3/2c/ B3/2A/G^F G4 z4  | _2/4e2f6 f4 _3/4g4  | \
w:   |  Ye ter  üz me   | 
f4 _2/4e4 eff_3/4e d4  | 
w:  ça buk  gel    | 
f2_3/4e2 d2c2 f2e2 d2c2  | d_2/4ecd efde f_3/4geg f4  | 
w:  gel  *  *  *  gel   |  gel    | 
_2/4e2f6 f4 _3/4g4  | f4 _2/4e4 eff_3/4e d4  | \
w:  Ye ter  üz me   |  ça buk  gel    | 
f2_3/4e2 d2c2 f2e2 d2c2  | d_2/4ecd efde f_3/4geg f4  | 
w:  gel  *  *  *  gel   |  gel    | 
a2b6 a4 g4  | ^f2g2 a2ag g6z2  | _2/4e2f6 f4 f2_7/8ed  | \
w:  U za ma sın   |  şu  *  hic *  *  rân    |  Bu gün ler den   | 
d2g2 f2g2 e3d c4  | 
w:  çok  ev *  *  vel    | 
z4 B2BA G6z2  | g16  | gffe eddc f4 z4  | \
w:  De dim_ *  ah   |  ah   |   | 
feed dccB e4 z4  | 
w:  ah   | 
eddc cBBA GABc dcd2  | d4 A2c2 B3A G4  | 
w:  ah   |  *  be nim_ ol *  san    | 
|


